X:364
T:B364-  Packington's Pound
S:(3rd/3)
Q:1/4=120
L:1/4
M:3/4
K:Fm
C|F=EG|GAB|AGF|G2G|\
AGA|BBc|G3/2F/=E|F2:|c|\
ce=d|c2c|ce=d|c2c|\
ce=d|c=de|f3/2e/=d|c2e|\
c3/2B/A|BGE|AGF|G2G|\
AGA|BBc|G3/2F/=E|F2|]

